icon-themes/sifr_svg/cmd/sc_dsbformletter.svg

<svg viewBox="0 0 16 16" xmlns="http://www.w3.org/2000/svg"><path d="m1 1v14h2v-12h8v1.38l2 1v-4.38zm9 4-6 3v8h12v-8zm0 2 3.2 1.46-3.2 1.54-3.2-1.545zm-4 3.3 4 1.7 4-1.7v3.7h-8z" fill="#555753"/></svg>

<svg xmlns="http://www.w3.org/2000/svg" viewBox="0 0 16 16">
  <path
     style="fill:#555753"
     d="M 1 1 L 1 15 L 3 15 L 3 3 L 11 3 L 11 4.38 L 13 5.38 L 13 1 L 1 1 z M 10 5 L 4 8 L 4 16 L 16 16 L 16 8 L 10 5 z M 10 7 L 13.2 8.46 L 10 10 L 6.8 8.455 L 10 7 z M 6 10.3 L 10 12 L 14 10.3 L 14 14 L 6 14 L 6 10.3 z "
     />
</svg>
